X:1
T:Ce faux amour
T:Ce faux amour
T:Jean de Castro
T:Source : Livre de chansons à 3 parties---Paris---A.le Roy & R.Ballard---1575. Editor : André Vierendeels (03/10/15).
T:Notes : Original clefs : C1, C3, C4
C:Jean de Castro
%%score [ 1 [ 2 3 ] ]
L:1/8
Q:1/4=96
M:2/2
K:C
V:1 treble nm="Suprerius" snm="S"
V:2 treble-8 nm="Tenor 1" snm="T 1"
V:3 treble-8 nm="Tenor 2" snm="T 2"
V:1
 z4 G4 | G4 G4 | A4 c4- | c2 B4 c2 | A2 G2 ^F4 | G8- | G8 | z4 G4 | A2 G2 A2 B2 | c4 G4- | %10
w: Ce|faux a-|mour, d'arc|_ et de|fle- ches s'ar-|me|_|et|prent _ _ _|_ son|
 G2 FE D4 | E2 G2 G2 G2 | A4 c4- | c2 BA B4 | c4 z2 G2 | G2 G2 c4 | z2 A2 A2 A2 | B2 B2 c4 | %18
w: _ _ _ _|feu pour me li-|vrer l'as-||sault, pour|me li- vrer,|pour me li-|vrer l'as- sault,|
 z2 c2 A2 A2 | F4 z2 A2 | G2 F2 E2 D2 | A2 F2 E4 | D8 | z2 d2 B4 | G4 z2 c2 | A4 A2 F2 | %26
w: et me con-|traint, et|me con- traint cri-|er à l'ar-|me,|à l'ar-|me, à|l'ar- me, sus|
 FGAB c2 c2 | G4 z2 C2 | CDEF G2 G2 | D4 z2 d2 | c4 B4 | c4 A4 | B4 B4 | c6 B2 | A4 G4 | F8 | %36
w: à _ _ _ _ l'as-|sault, sus|à _ _ _ _ l'as-|sault, re-|si- ster|il luy|fault, las!|il _|_ me|brul-|
 E2 A2 c2 c2 | G2 G2 d4 | z2 A2 c4 | z2 G2 A4 | z2 D2 G4 | z2 G4 E2- | E2 G2 F2 E2 | D2 C2 D4 | %44
w: le, O, que son|feu est chault,|au feu,|au feu,|au feu,|se- cou-|* rez moy, ma-|da- * *|
 E4 G4 | A4 G4 | F8 | E2 c4 G2 | z2 c2 A2 A2 | G2 G2 A4 | D2 G4 A2- | A2 B4 c2- | c2 A3 G F2 | %53
w: me, mi-|se- ri-|cor-|de, aul- tre,|aul- tre je|ne re- cla-|me, vous me|_ pou- vez|_ ren- * *|
 E4 F4 | E6 E2 | G4 D4 | E4 F4 | G4 A4 | B4 c4 | d2 c2 B4 | ^c4 z2 A2 | c2 c2 G4 | z2 B2 d2 d2 | %63
w: dre vic-|to- ri-|eux et|rem- por-|ter ce|grand hon-|neur sans bla-|me, d'a-|voir vain- cu,|d'a- voir vain-|
 A4 z2 E2 | G2 G2 D4 | z2 A2 c2 c2 | G4 z2 B2 | d2 d2 c2 A2 | A2 A2 G4- | G4 ^F4 | !fermata!G8 |] %71
w: cu d'a-|voir vain- cu,|d'a- voir vain-|cu, d'a-|voir vain- cu ce-|luy qui vainc|_ les|dieux.|
V:2
 d8 | e4 e4 | f4 e4 | d6 e2 | c2 B2 A4 | B4 d4 | e2 d2 e2 f2 | g2 f2 e2 d2 | c4 f4 | e4 z2 e2 | %10
w: Ce|faux a-|mour, d'arc|et de|fle- ches s'ar-|me, et|prent _ _ _|_ _ _ _|* son|feu, et|
 d2 c3 B/A/ B2 | c8 | z2 c2 c2 c2 | d8 | f4 e4 | z2 e2 e2 e2 | f4 d4 | g2 g2 e2 e2 | c4 z2 f2 | %19
w: prent _ _ _ son|feu,|pour me li-|vrer|l'as- sault,|pour me li-|vrer l'as-|sault, et me con-|traint, et|
 d2 A2 f2 f2 | e2 a2 g4 | f2 d2 ^c4 | d2 a2 f4 | d4 z2 g2 | e4 c4 | z2 f2 c4 | d4 z2 c2 | %27
w: me con- traint cri-|er à l'ar-|me, à l'ar-|me, à l'ar-|me, à|l'ar- me,|à l'ar-|me, sus|
 cdef g2 g2 | g4 z2 G2 | GABc d2 d2 | A2 e4 g2 | a2 g4 ^f2 | g4 g4 | a6 g2 | f4 e4 | d8 | c8 | %37
w: à _ _ _ _ l'as-|sault, sus|à _ _ _ _ l'as-|sault, re- si-|ster il luy|fault, las!|il _|_ me|brul-|le,|
 e4 g2 g2 | f2 f2 e4 | z2 e2 f2 c2 | g4 z2 d2 | e4 z2 g2 | c2 c2 A2 c2 | B2 A2 B4 | c4 e4 | %45
w: O, que son|feu est chault,|au feu, au|feu, au|feu, au|feu, se- cou- rez|moy, ma- da-|me, mi-|
 d2 c2 c4- | c2 BA B4 | c4 e4- | e2 c4 f2 | d2 g2 ^f4 | g4 e4 | ^f4 g4 | a2 f3 e d2 | ^c4 d4 | %54
w: se- ri- cor-||de, aul-|* tre, je-|ne re- cla-|me, vous|me pou-|vez ren- * *|dre vic-|
 d4 c4 | d4 z2 g2 | g4 c4 | d2 e4 ^f2- | f2 g2 e4 | z2 a2 g4 | e8 | z4 e4 | g2 g2 d4 | %63
w: to- ri-|eux et|rem- por-|ter ce grand|_ hon- neur|sans bla-|me,|d'a-|voir vain- cu,|
 z2 ^f2 a2 a2 | e4 z2 B2 | d2 d2 A4 | z2 e2 g2 g2 | d2 g2 c4- | c4 B4 | A4 A4 | !fermata!B8 |] %71
w: d'a- voir vain-|cu, d'a-|voir vain- cu,|d'a- voir vain-|cu ce- luy|_ qui|vainc les|dieux.|
V:3
 G8 | C4 E4 | D4 C4 | G6 E2 | F2 G2 D4 | G4 G4 | c2 B2 c2 d2 | e4 E4 | F2 E2 F2 G2 | A2 B2 c4 | %10
w: Ce|faux a-|mour, d'arc|et de|fle- ches s'ar-|me, et|prent, _ _ _|_ et|prent _ _ _|_ _ _|
 G8 | C8 | z8 | G4 G2 G2 | A4 c4 | G2 c2 c2 c2 | d4 f4 | e4 z2 c2 | A2 A2 F4 | z2 F2 F2 F2 | %20
w: son|feu,||pour me li-|vrer l'as-|sault, pour me li-|vrer l'as-|sault, et|me con- traint,|et me con-|
 c2 c2 G4 | z2 D2 A4 | D4 z2 d2 | B4 G4 | z2 c2 A4 | F8 | z2 F2 FGAB | c2 c2 c4 | z2 C2 CDEF | %29
w: trant cri- er|à l'ar-|me, à|l'ar- me,|à l'ar-|me|sus à _ _ _|_ l'as- sault,|sus à _ _ _|
 G2 G2 G4 | z2 A2 A2 G2 | C4 D4 | G4 G4 | F8- | F4 C4 | D8 | A4 z2 A2 | c2 c2 G2 G2 | d4 z2 A2 | %39
w: _ l'as- sault,|re- si- ster|il luy|fault, las!|il|_ me|brul-|le, O,|que son feu est|chault, au|
 c4 z2 F2 | G4 z2 G2 | c4 z2 C2 | C2 C2 D2 C2 | G8 | C4 C4 | F4 E4 | D8 | C4 c4- | c2 A4 d2 | %49
w: feu, au|feu, au|feu, se-|cou- rez moy, ma-|da-|me, mi-|se- ri-|cor-|de, aul-|* tre, je|
 B2 c2 A4 | G4 c4 | d4 e4 | f4 d4 | A4 D4 | A6 A2 | G4 G4 | c4 A4 | G2 c4 d2- | d2 G2 A4 | %59
w: ne re- cla-|me, vous|me pou-|vez ren-|dre vic-|to- ri-|eux et|rem- por-|ter ce grand|_ hon- neur|
 z2 A2 e4 | A8 | z2 A2 c2 c2 | G4 z2 B2 | d2 d2 A4 | z2 E2 G2 G2 | D4 z2 A2 | c2 c2 G4- | G4 A4 | %68
w: sans bla-|me,|d'a- voir vain-|cu, d'a-|voir vain- cu,|d'a- voir vain-|cu, d'a-|voir vain- cu|_ ce-|
 F4 G4 | D4 D4 | !fermata!G8 |] %71
w: luy qui|vainc les|dieux.|

